icons/radio-check.svg

<svg xmlns="http://www.w3.org/2000/svg" width="96" height="96"><path d="M4 48c0-11.7 4.6-22.9 12.9-31.1C25.1 8.6 36.3 4 48 4c11.7 0 22.9 4.6 31.1 12.9C87.4 25.1 92 36.3 92 48c0 11.7-4.6 22.9-12.9 31.1C70.9 87.4 59.7 92 48 92c-11.7 0-22.9-4.6-31.1-12.9C8.6 70.9 4 59.7 4 48zm8 0c0-9.5 3.8-18.7 10.5-25.5C29.3 15.8 38.5 12 48 12s18.7 3.8 25.5 10.5C80.2 29.3 84 38.5 84 48s-3.8 18.7-10.5 25.5C66.7 80.2 57.5 84 48 84s-18.7-3.8-25.5-10.5C15.8 66.7 12 57.5 12 48zm16 0c0-5.3 2.1-10.4 5.9-14.1C37.6 30.1 42.7 28 48 28c5.3 0 10.4 2.1 14.1 5.9C65.9 37.6 68 42.7 68 48c0 5.3-2.1 10.4-5.9 14.1C58.4 65.9 53.3 68 48 68c-5.3 0-10.4-2.1-14.1-5.9C30.1 58.4 28 53.3 28 48zm8 0c0-3.2 1.3-6.2 3.5-8.5 2.3-2.2 5.3-3.5 8.5-3.5s6.2 1.3 8.5 3.5c2.2 2.3 3.5 5.3 3.5 8.5s-1.3 6.2-3.5 8.5C54.2 58.7 51.2 60 48 60s-6.2-1.3-8.5-3.5C37.3 54.2 36 51.2 36 48z" fill-rule="evenodd" fill="#454545"/></svg>

<?xml version="1.0" standalone="no"?><!-- Generator: Gravit.io --><svg xmlns="http://www.w3.org/2000/svg" xmlns:xlink="http://www.w3.org/1999/xlink" width="96" height="96"><path d=" M 4 48 C 4 36.3 8.6 25.1 16.9 16.9 C 25.1 8.6 36.3 4 48 4 C 59.7 4 70.9 8.6 79.1 16.9 C 87.4 25.1 92 36.3 92 48 C 92 59.7 87.4 70.9 79.1 79.1 C 70.9 87.4 59.7 92 48 92 C 36.3 92 25.1 87.4 16.9 79.1 C 8.6 70.9 4 59.7 4 48 Z  M 12 48 C 12 38.5 15.8 29.3 22.5 22.5 C 29.3 15.8 38.5 12 48 12 C 57.5 12 66.7 15.8 73.5 22.5 C 80.2 29.3 84 38.5 84 48 C 84 57.5 80.2 66.7 73.5 73.5 C 66.7 80.2 57.5 84 48 84 C 38.5 84 29.3 80.2 22.5 73.5 C 15.8 66.7 12 57.5 12 48 Z  M 28 48 C 28 42.7 30.1 37.6 33.9 33.9 C 37.6 30.1 42.7 28 48 28 C 53.3 28 58.4 30.1 62.1 33.9 C 65.9 37.6 68 42.7 68 48 C 68 53.3 65.9 58.4 62.1 62.1 C 58.4 65.9 53.3 68 48 68 C 42.7 68 37.6 65.9 33.9 62.1 C 30.1 58.4 28 53.3 28 48 Z  M 36 48 C 36 44.8 37.3 41.8 39.5 39.5 C 41.8 37.3 44.8 36 48 36 C 51.2 36 54.2 37.3 56.5 39.5 C 58.7 41.8 60 44.8 60 48 C 60 51.2 58.7 54.2 56.5 56.5 C 54.2 58.7 51.2 60 48 60 C 44.8 60 41.8 58.7 39.5 56.5 C 37.3 54.2 36 51.2 36 48 Z " fill-rule="evenodd" fill="#454545" stroke="none"/><mask id="_mask_ZIDBlSOmE2ghS1hKe2yQrNEkbaMHsPWX"><path d=" M 4 48 C 4 36.3 8.6 25.1 16.9 16.9 C 25.1 8.6 36.3 4 48 4 C 59.7 4 70.9 8.6 79.1 16.9 C 87.4 25.1 92 36.3 92 48 C 92 59.7 87.4 70.9 79.1 79.1 C 70.9 87.4 59.7 92 48 92 C 36.3 92 25.1 87.4 16.9 79.1 C 8.6 70.9 4 59.7 4 48 Z  M 12 48 C 12 38.5 15.8 29.3 22.5 22.5 C 29.3 15.8 38.5 12 48 12 C 57.5 12 66.7 15.8 73.5 22.5 C 80.2 29.3 84 38.5 84 48 C 84 57.5 80.2 66.7 73.5 73.5 C 66.7 80.2 57.5 84 48 84 C 38.5 84 29.3 80.2 22.5 73.5 C 15.8 66.7 12 57.5 12 48 Z  M 28 48 C 28 42.7 30.1 37.6 33.9 33.9 C 37.6 30.1 42.7 28 48 28 C 53.3 28 58.4 30.1 62.1 33.9 C 65.9 37.6 68 42.7 68 48 C 68 53.3 65.9 58.4 62.1 62.1 C 58.4 65.9 53.3 68 48 68 C 42.7 68 37.6 65.9 33.9 62.1 C 30.1 58.4 28 53.3 28 48 Z  M 36 48 C 36 44.8 37.3 41.8 39.5 39.5 C 41.8 37.3 44.8 36 48 36 C 51.2 36 54.2 37.3 56.5 39.5 C 58.7 41.8 60 44.8 60 48 C 60 51.2 58.7 54.2 56.5 56.5 C 54.2 58.7 51.2 60 48 60 C 44.8 60 41.8 58.7 39.5 56.5 C 37.3 54.2 36 51.2 36 48 Z " fill-rule="evenodd" fill="white" stroke="none"/></mask><path d=" M 4 48 C 4 36.3 8.6 25.1 16.9 16.9 C 25.1 8.6 36.3 4 48 4 C 59.7 4 70.9 8.6 79.1 16.9 C 87.4 25.1 92 36.3 92 48 C 92 59.7 87.4 70.9 79.1 79.1 C 70.9 87.4 59.7 92 48 92 C 36.3 92 25.1 87.4 16.9 79.1 C 8.6 70.9 4 59.7 4 48 Z  M 12 48 C 12 38.5 15.8 29.3 22.5 22.5 C 29.3 15.8 38.5 12 48 12 C 57.5 12 66.7 15.8 73.5 22.5 C 80.2 29.3 84 38.5 84 48 C 84 57.5 80.2 66.7 73.5 73.5 C 66.7 80.2 57.5 84 48 84 C 38.5 84 29.3 80.2 22.5 73.5 C 15.8 66.7 12 57.5 12 48 Z  M 28 48 C 28 42.7 30.1 37.6 33.9 33.9 C 37.6 30.1 42.7 28 48 28 C 53.3 28 58.4 30.1 62.1 33.9 C 65.9 37.6 68 42.7 68 48 C 68 53.3 65.9 58.4 62.1 62.1 C 58.4 65.9 53.3 68 48 68 C 42.7 68 37.6 65.9 33.9 62.1 C 30.1 58.4 28 53.3 28 48 Z  M 36 48 C 36 44.8 37.3 41.8 39.5 39.5 C 41.8 37.3 44.8 36 48 36 C 51.2 36 54.2 37.3 56.5 39.5 C 58.7 41.8 60 44.8 60 48 C 60 51.2 58.7 54.2 56.5 56.5 C 54.2 58.7 51.2 60 48 60 C 44.8 60 41.8 58.7 39.5 56.5 C 37.3 54.2 36 51.2 36 48 Z " fill-rule="evenodd" fill="none" stroke="none" stroke-width="16" mask="url(#_mask_ZIDBlSOmE2ghS1hKe2yQrNEkbaMHsPWX)"/></svg>
